X:1
T:SUITE V.
T:Discordant. Accord:                       
%%score ( 1 2 3 4 )
L:1/8
Q:1/4=44
M:4/4
K:Eb
V:1 bass nm="Violoncello" snm="Vc."
V:2 bass 
V:3 bass 
V:4 bass 
V:1
"^Prélude." C,2- C,/(G,,/=A,,/=B,,/ C,/D,/E,/F,/ E,/D,/E,/C,/) | B,3 B, (=A,B,/F,/) (E,F,/D,/) | %2
 E,4 C,2- C,/C,/D,/E,/ | D,3 D, =E,2 x2 | F,2 z2 D3 D | D2- D/D/C/B,/ C>=A, B,>C | %6
 B,2 C,,2 F,-(F,/4E,/4D,/4E,/4) F,>C, | F,3 =A,/B,/ A,>F, E,>D, | %8
 E,2- (E,/F,/4E,/4D,/E,/) TE,3 D, | D,2- D,/(D,/=E,/^F,/ =A,/=B,/C/D/ C/=B,/C/A,/) | %10
 F3 F =E3/2D/4C/4 =B,>C | ^C3 E,/D,/ E,>=A, D>E, | D2- D/=C/D/=B,/ C>=A, _E>F, | %13
 _E2- E/D/C/_B,/ =A,>B, C>A, | B,2 F,,>G,, A,,>B,, C,>_E,, | B,2- B,/C/B,/C/ TC3 B, | %16
 =A,2- (A,/F,/E,/D,/) (E,/F,/=A,/B,/ C/D/=E/C/) | F2 C,,>=E D>C =B,>=A, | =E2 x2 B,,>G, =A,,>G,, | %19
 ^F,,>=B, C>D D,>D C>=B, | C2- C/(G,/F,/E,/ D,/C,/B,,/=A,,/ B,,/G,,/A,,/B,,/) | %21
 C2 x2 C,/C/=B,/C/ D/B,/C/D/ | (^F,/G,/F,/G,/ =B,/^F,/G,/=B,/) (C,/D,/C,/D,/ E,/C,/D,/E,/) | %23
 (=A,,/B,,/A,,/B,,/ C,/A,,/B,,/C,/) D,,/=E,,/^F,,/G,,/ =A,,/B,,/C,/A,,/ | %24
 B,,/D,/=E,/^F,/ =A,/=B,/C/D/ =E2- E/D/C/=B,/ | C>^F, G,>C, =A,2 T^F,>G, || %26
[M:3/8] G,2[Q:3/8=60] =A, | B,C,D, | E,G,/F,/G,/E,/ | F,=A,,=B,, | C,E,/D,/E,/C,/ | %31
 (D,/E,/F,/=A,/B,) | T=B,,G,,/F,/E,/D,/ | E,/F,/D,/E,/F,/D,/ | (E,/D,/E,/)=A,/D/=E/ | F=A,=B, | %36
 C=E/D/E/C/ | D=E,^F, | G,C/=B,/C/=A,/ | =B,/C/D/=E/=A,/F/ | ^F,/F/=E/D/C/=B,/ | C/D/=B,/C/D/B,/ | %42
 C/=A,/D,/E,/F,/D,/ | =E,/D/=A,/_B,/C/A,/ | B,/F,/C,/D,/_E,/C,/ | D,/E,/F,/G,/_A,/F,/ | %46
 G,/F,/E,/D,/C,/B,,/ | A,,C,D, | E,G,,/F,,/G,,/E,,/ | F,,=A,,=B,, | C,E,,/D,,/E,,/C,,/ | %51
 D,,/E,,/F,,/G,,/A,,/F,,/ | =B,,/C,/D,/E,/F,/D,/ | E,/F,/D,/E,/F,/D,/ | E,/D,/C,/D,/E,/F,/ | %55
 G,/F,/G,=B, | CD,/C,/D,/B,,/ | C,/D,/=E,^F, | G,B,,/=A,,/B,,/G,,/ | =A,,/B,,/C,/D,/E,/C,/ | %60
 ^F,/=A,/=B,/C/D/B,/ | C/D/=B,/C/D/B,/ | C/=A,/=B,/C/D/=E/ | F/C,/D,/E,/F,/=A,/ | %64
 _B,/F,/=A,/B,/C/D/ | =E/B,,/C,/D,/E,/F,/ | G,/E,/F,/=A,/B,/C/ | D/C/B,/=A,/F,/E,/ | %68
 B,/=A,/F,/E,/D,/C,/ | F,/E,/D,/C,/B,,/=A,,/ | (E,/D,/C,/B,,/)C | D(E,/G,/F,/B,/) | %72
 =A,/D/C/B,/C/=A,/ | B,(C,/E,/)(D,/F,/) | E,/B,/=A,/F,/A,/E,/ | (F,/=A,/B,/C/)D | %76
 (E,/D,/)(C,/B,,/)(C,/D,/) | E,/F,/ F,>E, | E,G,/F,/G,/E,/ | C(D,/C/)(=E,/C/) | %80
 F,/C/B,/=A,/B,/F,/ | D(_E,/D/)(F,/D/) | G,/D/C/B,/C/=A,/ | F(G,/F/)(_A,/F/) | %84
 (B,/=E/)(F,/E/)(G,/E/) | (_A,/D/)(E,/D/)(F,/D/) | G,/D/^C/=B,/C/=A,/ | _B,/=C/D=E | %88
 F/_A,/G,/F,/G,/E,/ | F,/=A,/(=B,/F,/)(^C/F,/) | D/F,/E,/D,/E,/C,/ | (D,/E,/F,/)D,/=B,,/C,/ | %92
 D,/=B,,/G,,/=A,,/B,,/F,,/ | E,,/G,,/C,/F,,/G,,/=B,,/ | (=A,,/C,/F,/)=B,,/C,/E,/ | %95
 D,/F,/C/=E,/F,/B,/ | (F,/=A,/)(E,/A,/)(D,/A,/) | (E,/=A,/)(E,/D/)(E,/C/) | %98
 (E,/=B,/)(F,/B,/)(E,/B,/) | (D,/B,/)(D,/C/)(D,/B,/) | E,/B,/=A,/F,/A,/C/ | FG,,=A,, | %102
 B,,=E/D/E/C/ | D=E,,^F,, | G,,C/=B,/C/=A,/ | (=B,/C/D/)B,/^F,/=A,/ | (=B,/^F,/D,/)=E,/^F,/C,/ | %107
 B,,/D,/G,/C,/D,/^F,/ | G,,2 D, | D,3 | B,,/D,/G,/=E,/F,/D,/ | =E,/C,/B,,/_A,,/B,,/G,,/ | %112
 A,,/C,/F,/D,/E,/C,/ | =B,,3 | (F,/=A,/)(F,/A,/)(B,/F,/) | (^C/F,/)(=E/_B,/)=A,/F,/ | %116
 E,/G,/D,/E,/F,/D,/ | E,/C,/=B,,/C,/D,/B,,/ | C,/E,/D,/E,/F,/D,/ | =E,/B,,/_A,,/B,,/C,/A,,/ | %120
 B,,/F,/=E,/F,/G,/E,/ | F,/A,,/G,,/A,,/B,,/G,,/ | A,,/G,/F,/G,/_A,/F,/ | G,/=E,,/D,,/E,,/F,,/D,,/ | %124
 =E,,/F,,/G,,/A,,/B,,/G,,/ | A,,/G,,/A,,/B,,/C,/D,/ | =E,/F,/G,/B,/C/=A,/ | B,/=A,/F,/=E,/F,/A,/ | %128
 B,/C/D/_E/C/D/ | _E/C/F,/B,/=A,/C/ | B,/_E/D/C/D/B,/ | C/=A,/D,/F,/=E,/G,/ | F,/C/B,/=A,/B,/F,/ | %133
 (=A,/B,/C/)A,/=E,/F,/ | (G,/=E,/C,/)D,/E,/B,,/ | _A,,/C,/F,/B,,/C,/=E,/ | F,F,,B, | B,3 | %138
 B,,/_A,/F,/D,/F,/D,/ | B,,/(D/C/B,/=A,/F,/) | G,/F,/E,/G,/F,/B,/ | =A,3/2 x/ x | %142
 A,,/G,/(E,/C,/)(E,/C,/) | A,,/(C/B,/=A,/F,/E,/) | (F,/E,/D,/)F,/E,/G,/ | F,3 | %146
 (=A,/F,/)(D,/=B,,/)(D,/B,,/) | G,,/(B,/=A,/F,/E,/D,/) | (E,/D,/E,/F,/G,/)G,,/ | A,,D=E | %150
 FG,,/F,,/G,,/E,,/ | F,,=B,^C | DE,,/D,,/E,,/C,,/ | D,,/(C,/=B,,/=A,,/G,,/)(F,/ | %154
 E,/D,/)(D/^C/=B,/=A,/) | D/=A,/_B,/F,/G,/D,/ | (E,/D,/C,/)E,/D,/F,/ | E,/D/=A,/E,/F,/D,/ | %158
 (E,/D,/C,/)E,/G,,/B,,/ | =A,,/C,/F,/D,/E,/C,/ | (D,/C,/B,,/)D,/C,/E,/ | D,/F,/C/=A,/B,/F,/ | %162
 (G,/F,/E,/)G,/F,/B,/ | (=A,/C/F/)D/=E/^C/ | D/=C/B,/D/=A,/D/ | F,/(F/=E/^C/D/E/) | %166
 G,/(F/=E/^C/D/E/) | _A,/(F/=E/^C/D/E/) | ^F,/(F/=E/^C/D/E/) | =A,/(F/=E/^C/D/E/) | G,,3 | %171
 (E,/=A,/D/)E,/F,/E,/ | (D,/F,/^C/)_B,/=A,/F,/ | (E,/=A,/D/)E,/F,/E,/ | D,/D/^C/=E/=A, | B,C,D, | %176
 E,G,/F,/G,/E,/ | F,=A,,=B,, | C,E,/D,/E,/C,/ | D,/E,/F,/=A,/B,/F,/ | D/^C/=B,/=A,/D/^C/ | %181
 D/=E/ E>D | (D/=C/_B,/=A,/B,/)F,/ | =E,/(_E/D/C/B,/=A,/) | (B,/=A,/F,/)D,/E,/C,/ | %185
 =B,,/(_A,/G,/F,/E,/D,/) | (E,/D,/C,/)=A,,/B,,/G,,/ | ^F,,/(E,/D,/C,/=B,,/=A,,/) | %188
 (=B,,/=A,,/G,,/)B,,/D,/F,/ | (B,/=A,/)(A,/F,/)(F,/E,/) | (E,/C,/G,,/C,/E,/)=A,/ | %191
 (D/C/)(C/=B,/)(B,/D/) | (^F,/C,/G,,/C,/^F,/)=B,/ | (D/=E/4F/4)(E/D/)(D/^C/) | %194
 ^C/=E/C/=A,/D,/G,,/ | F,,(D/^C/=B,/=A,/) | DE,,F,, | G,,C/B,/C/=A,/ | B,C,,D,, | E,,G,/F,/G,/E,/ | %200
 F,=A,,=B,, | C,E,/D,/E,/C,/ | F,,(_E/D/^C/D/) | (_B,/=A,/^F,/G,/E,/D,/) | %204
 (C,/E,/_D,/C,/=B,,/C,/) | (^F,,/G,,/=A,,/=B,,/C,/=D,/) | (E,/D,/C,/D,/E,/F,/) | %207
 G,/D,/E,/C,/G,,/=B,,/ | C,,3 | (A,,/C,/F,/)A,,/B,,/A,,/ | (G,,/B,,/=E,/)_D,/C,/B,,/ | %211
 (A,,/C,/F,/)A,,/B,,/A,,/ | (G,,/B,,/=E,/)_D,/C,/B,,/ | (A,,/C,/F,/)=D,/_E,/C,/ | %214
 =B,,/(E,/D,/C,/=B,,/=A,,/) | G,,/(G,/F,/E,/D,/C,/) | !fermata!C z z | F,,/(=B,/=A,/F,/E,/D,/) | %218
 !fermata!_E, z z | G,,/(F/=E/)(^C/D/)(=A,/ | B,/)(^F,/G,/)(D,/E,/)(=B,,/ | C,/)^F,,/ G,,G,, | %222
 D3 |][K:Eb][M:4/4]"^Allemande."[Q:1/4=66] D | D2- D/C/B,/=A,/ B,>F, G,>D, | %225
 C,2- C,/B,,/A,,/G,,/ A,,>F,, G,,>D, | D,3/2C,/4=B,,/4 C,>G, A,,>G, (F,/E,/D,/C,/) | %227
 =B,,>A,, G,,/=B,,/D,/F,/ B,>=A, (F,/E,/F,/D,/) | E,>D, C,/=B,,/C,/D,/ E,/D,/E,/F,/ G,/F,/G,/B,/ | %229
 C2- C/B,/=A,/F,/ G,3/2F,/4E,/4 _E>C | D2- D/C/B,/=A,/ B,>D T=E,>F, | %231
 G,2- (G,/F,/=E,/F,/4G,/4) C,>C B,3/2C/4=A,/4 | B,2- B,(D/C/ B,/=A,/F,/E,/ D,/E,/F,/D,/) | %233
 A,,2- A,,/(F,/E,/D,/ C,/B,,/A,,/G,,/ F,,/G,,/A,,/F,,/) | B,2- B,/=A,/B,/F,/{F} =E2- E/D/E/C/ | %235
 G2- G/F/=E/D/ C>G, _A,>G | G,-(G,/4_A,/4G,/4F,/4) G,>_A, G,2 (TF,3/2E,/4D,/4) | %237
 E,2 C,,>C =B,2 (=A,/^F,/A,) | =E2- E/(_E,/D,/C,/) TB,,>C, (D,/=E,/^F,/)=A,/ | %239
 (=B,/=A,/^F,/A,/ =B,/C/D/=E/) F3/2E/4D/4 E>^F, | =A,2 C,/(=B,/A,/=B,/) TB,3 A, | %241
 G,>D,=B,,>D, G,,3 :: =E | =E2- E/D/E/F/ ^C>_A, G,>F, | E,>=A, D/D,/E,/F,/ T=B,,>A, =E3/2F/4G/4 | %245
 F2 C,,>=E D3/2C/4=B,/4 C>D | =B,2- B,/B,/C/D/ F,3/2=A,/4=B,/4 TB,3/2A,/4B,/4 | %247
 C2 D,,/C/_B,/=A,/ F,>E, F,>=A, | C,2- C,/C,/D,/E,/ D,>D, E,>F, | %249
 (D,3/2E,/4D,/4) C,D,/B,,/ =A,-(A,/4F,/4E,/4D,/4) E,>G, | %250
 _D,,-D,,/4(G,,/4A,,/4B,,/4 C,/B,,/)_A, G,2 (TF,/=E,/F,) | B,,2- B,,/B,,/A,,/G,,/ A,,>F, G,>_A, | %252
 =E,>C B,C/=A,/ TG,3 F, | F,2- F,/F,/E,/D,/ E,>D (C/=B,/=A,/F,/) | %254
 C3/2_B,/4=A,/4 F,>A, B,>A, (F,/E,/D,/E,/4F,/4) | %255
 T=B,,>=A, =E(F/4E/4D/4E/4) F>C, (G,,3/2_A,,/4_B,,/4) | A,,>G, F,>F =E>D (E/^C/)D | %257
 F,>(G, _A,/G,/F,/E,/ D,/C,/=B,,/C,/) D,/E,/F,/D,/ | A,,>^C (D/^C/=B,/=A,/) D3 ^F, | %259
 G,>F =E/F/G/E/ ^C3 D | D>=A, E,>C, D3 :|[K:Eb][M:3/2]"^Courante."[Q:1/2=80] C, | %262
 C,3 D, (E,F,G,_A,) (G,F,G,E,) | F,3 E, (E,D,C,=B,,) C,3 D, | G,,3 C,/=B,,/ C,2 D,2 (F,E,D,C,) | %265
 B,3 F,{D} ^C2 D2 D,3 G, | E,3 D, (C,D,E,F,) (=A,B,DC) | C3 B, (=A,F,E,D,) (D,E,=A,,>F,) | %268
 (E,D,C,B,,) C3 D (C=B,C=A,) | D3 C (C=B,=A,^F,) G,3 =B, | (=A,^F,=E,D,) =E2 D^C D2 E2 | %271
 F3 =E DC=B,C T^F,3 G, | =A,,^F,D=E{D} C2 C,>=B,"^(    )" TB,3 =A, | %273
 G,2- (G,/=F,/_E,/D,/) E,>C, G,4 z :: =E | =E3 F ED^CD/E/ =A,3 _B, | F,3 E, (D,E,F,_A,) G,2 F,2 | %277
 (F,E,D,C,) B,2 =A,2 D3 _E | T=E,3 F, (=A,B,CD) _E2 D2 | (CB,=A,F,) (_E,_D,E,C,) (_D,F,G,_A,) | %280
 _A,G,F,E, F3 G C3 B, | B,3 =A, B,CD=E E3 D/E/ | F3 C D2 =A,2 A,B,D,C | %283
 (B,=A,F,E,) (=A,=B,A,B,)"^(    )" TB,3 (A,/=B,/) | C3 =B, (D^C) D2 (=C_B,) (=A,F,) | %285
 F,3 G, E,2 F,,D,"^(    )" TD,3 C, | C,3 G,,/F,,/ E,,/F,,/G,, D4 z :| %287
[K:Eb][M:3/4]"^Sarabande."[Q:1/4=60] (G,E,=B,,C,) A,,2 | (DB,=E,F,) =B,,2 | (=EB,=E,F,)(G,,G,) | %290
 (F,E,=B,,C,) C,,2 | (C,E,B,=A,)_ED | (D,F,CB,)(DC) | (B,=A,D,E,)(B,,D,) | E,,6 :: %295
 (C=A,D,E,) _D,,2 | (C=A,=E,F,) G,,2 | (_EC=E,F,)(C,,D) | (CB,=E,F,) F,,2 | (_E,,C,F,E,)(C=B,) | %300
 (D,,D,G,F,)(D^C) | (DB,^F,G,)(=B,,C,) | (G,,D,G,^F,)(D^C) | (FD^F,G,)(=A,,F) | %304
 (=E_A,=E,F,)(=B,,G,) | (F,E,=B,,C,)G,,^C | (C,,G,,F,E,) D2 :| %307
[K:Eb][M:2/2]S"^Gavotte I."[Q:1/2=72] =A,2 D2 | B,2 (C=A,) B,2 (CF,) | G,2 (E,=B,,) C,2 (B,E,) | %310
 F,2 (D,=A,,) (=B,,D,) =A,2 |"^(    )" TE,2 (D,C,) (G,E,)(D=A,) | (B,F,)(C=E,) (B,F,)(CD,) | %313
 (=A,E,)(B,D,) (A,E,)(CA,) | (D_A,)(_EG,) (D_A,)(F=A,) | (=E_B,)(FE) (DC)(=B,=A,) | %316
 =B,2 (C=A,) =B,2 (D=B,) | C2 (D=B,) C2 (FD) | =E2 =A,2 (C=B,) A,^F, | =A,4 :: C2 =A,2 | %321
 =E,2 (F,D,) =E,2 (DE,) | F,2 (G,=E,) F,2 (DF,) | =A,2 (_B,F,) A,2 (DA,) | %324
 (CB,=A,F,) (_A,G,F,_E,) | (D,A,,)(E,C,) (D,A,,)(CD,) | (E,G,,)(F,D,) (E,G,,)(CE,) | %327
 (F,B,,)(G,E,) (F,B,,)(CF,) | (B,=A,)(F,E,) B,2 A,2 | (F,E,F,D,) D2 C2 | (E,D,E,C,) D,2 B,2 | %331
 (B,F,G,E,) (G,F,E,D,) | E,4 G,2 E,2 | C2 (D=B,) C2 (D=A,) | (C=B,)(=A,F,) (=B,A,)(^C=B,) | %335
 (D^C)(=E^C) D(_E,D,C,) | (G,,D,)(D^C) (FG,)(_A,F,) | (=EF,)(G,E,) (DE,)(F,D,) | %338
 (D^C=B,=A,) (DE,)(F,D,) | (=CD,)(E,C,) (_A,C,)(D,=B,,) | =A,F,E,D, C,2 (E,C,) | %341
 D,2 (E,C,) D,2 (F,D,) | E,2 (F,D,) E,2 (B,F,) | G,2 C,2 (E,D,)(G,,=B,,) | C,4!dacoda! :: %345
[K:Eb][M:2/2]"^Gavotte II." (3(G,F,G,) (3(_A,G,F,) | G,2- (3(G,F,E,) (3(D,E,F,) (3(E,D,C,) | %347
 (3(=B,,C,D,) (3(G,,B,,D,) (3(G,F,G,) (3(_A,G,F,) | (3(G,F,E,) (3(D,E,F,) (3(E,D,C,) (3(=B,,C,D,) | %349
 C,2 C,,2 :: (3(E,D,E,) (3(F,E,D,) | E,2- (3(E,F,G,) (3(_A,G,F,) (3(G,F,E,) | %352
 (3(D,E,F,) (3(B,,D,F,) (3(C=B,C) (3(DCB,) | (3(C=B,=A,) (3(F=ED) (3(CB,A,) (3(^F,=A,=B,) | %354
 G,2 G,,2 (3(G,F,G,) (3(_A,G,F,) | G,2- (3(G,F,E,) (3(D,E,F,) (3(E,D,C,) | %356
 (3(=B,,C,D,) (3(G,,B,,D,) (3(G,F,G,) (3(_A,G,F,) | (3(G,F,E,) (3(D,E,F,) (3(E,D,C,) (3(=B,,C,D,) | %358
 (3(C,G,,E,,) (3(C,,E,,G,,) (3(C,E,=A,) (3(D=E^C) | D2- (3(D=CB,) (3(=A,B,C) (3(B,=A,F,) | %360
 (3(=E,F,G,) (3(C,D,=E,) (3(F,=E,F,) (3(G,F,=E,) | (3F, (_E,_D,(3C,D,E,) (3_D, (=E,F,(3G,F,E,) | %362
 (3F, (C,B,,(3=A,,B,,C,) (3B,, (=E,F,(3G,F,E,) | (3=B,,(F,G,(3_A,G,F,) (3(DCB,) (3(=A,F,=E,) | %364
 (3(F,G,_A,) (3(G,A,F,) (3(^CD=E) (3(DE^C) | (3(D=CB,) (3(=A,F,E,) (3(_A,G,F,) (3(E,D,C,) | %366
 (3(=B,,C,D,) (3(G,,B,,D,) (3(G,F,G,) (3(_A,G,F,) | (3(G,F,E,) (3(D,E,F,) (3(E,D,C,) (3(=B,,C,D,) | %368
 C,2 C,,2!D.S.! :|[K:Eb][M:3/8]O"^Gigue."[Q:3/8=72] G, | E,>F,D, | E,>F,D, | C,>(B,,A,,/G,,/) | %373
 A,,>C,G,, | F,,>E,C, | D,>E,C, | =B,,>D,G,, | G,>(F,E,/D,/) | E,>G,C, | _A,>(G,F,/E,/) | %380
 F,>_A,D, | C>(B,=A,/F,/) | G,>E,D | B,>F,=E | F3- | F>(=ED/C/ | D>)(CB,/=A,/ | B,3-) | %388
 B,>(G,F,/E,/ | D,>)(C,B,,/A,,/ | G,,>)_A,F, | G,>CD, | E,>G,,B,, | E,,2 :: E, | G,>_A,F, | %396
 G,>C=B, | C>(D,E,/F,/) | B,,>C,D, | E,>D=B, | C>^F,G, | ^F,>=B,D, | =E>(DC/=B,/) | C>=E=A, | %404
 F,>=A,D, | E,>=A,D | F2 =E | D>^F,G, | D,>=B,^F, | G,>(B,,C,/D,/) | G,,>C=A, | =E,>=A,C | _E>CD | %413
 B,>(G,F,/=E,/) | F,>B,_E, | D,>F,B, | D>B,C | =A,>(F,E,/D,/ | E,>)=A,C | =B,>(F,E,/D,/ | %420
 E,>)=B,D | ^C>(G,F,/E,/ | F,>)^C=E | D>=A,F | =E>=A,G | !trill(!TF3 | !trill)!^F3 | G>=E=F | %428
 =E>^CD | T^C>D=E | =A,>(F,E,/D,/ | E,) D2- | D>(CB,/=A,/ | B,>)(G,F,/=E,/ | F,3-) | %435
 F,>(_E,D,/C,/ | =B,,>)(A,,G,,/F,,/ | E,,>)G,,=B,, | D,>F,_A, | G,>D,E, | G,,>C,=B,, | C,>E,,G,, | %442
 C,,2 :| %443
V:2
 C,,2 x6 | C,,3 x5 | C,2 C,,2 x4 | =B,,4 _B,,2- B,,/A,,/B,,/G,,/ | A,,2 C,,2 A,,3 x | %5
 C,,2 x2 =E,2 x2 | F,2 x6 | =B,,3 x5 | C,,2 x6 | G,,2 x6 | G,,3 x5 | G,,3 x5 | G,,2 x6 | G,,2 x6 | %14
 F,2 x6 | D,,2 x6 | E,,2 x6 | x8 | ^F,2- F,/C,/B,,/=A,,/ x4 | x8 | G,,2 x6 | C,,2 x6 | x8 | x8 | %24
 x8 | x4 D,2 x2 ||[M:3/8] G,,2 x | x3 | x3 | x3 | x3 | x3 | x3 | x3 | x3 | x3 | x3 | x3 | x3 | x3 | %40
 x3 | G, D,2 | x3 | x3 | x3 | x3 | x3 | x3 | x3 | x3 | x3 | x3 | x3 | C, G,,2 | x3 | x3 | x3 | x3 | %58
 x3 | x3 | x3 | G, D,2 | G,,/ x5/2 | x3 | x3 | x3 | x3 | x3 | x3 | x3 | x3 | x3 | x3 | x3 | x3 | %75
 x3 | x3 | x B,,2 | E,, x2 | x3 | x3 | x3 | x3 | x3 | x3 | x3 | x3 | x3 | x3 | x3 | x3 | x3 | x3 | %93
 x3 | x3 | x3 | x3 | x3 | x3 | x3 | x3 | x3 | x3 | x3 | x3 | x3 | x3 | x3 | x3 | %109
 z (C,/B,,/C,/=A,,/) | x3 | x3 | x3 | z (D,/E,/)(D,/E,/) | x3 | x3 | x3 | x3 | x3 | x3 | x3 | x3 | %122
 x3 | x3 | x3 | x3 | x3 | x3 | x3 | x3 | x3 | x3 | x3 | x3 | x3 | x3 | x3 | z (F,/D,/)(F,/D,/) | %138
 x3 | x3 | x3 | z (E,/C,/)(E,/C,/) | x3 | x3 | x3 | z (=E/^C/)(E/^C/) | x3 | x3 | x3 | x3 | x3 | %151
 x3 | x3 | x3 | x3 | x3 | x3 | x3 | x3 | x3 | x3 | x3 | x3 | x3 | x3 | x3 | x3 | x3 | x3 | x3 | %170
 z (F,/E,/F,/D,/) | G,, x2 | G,, x2 | G,, x2 | x3 | x3 | x3 | x3 | x3 | x3 | x3 | x G,2 | x3 | x3 | %184
 x3 | x3 | x3 | x3 | x3 | x3 | x3 | x3 | x3 | x3 | x3 | x3 | x3 | x3 | x3 | x3 | x3 | x3 | x3 | %203
 x3 | x3 | x3 | x3 | x3 | z (_B,,/G,,/B,,/G,,/) | C,, x2 | C,, x2 | C,, x2 | C,, x2 | C,, x2 | %214
 D,, x2 | E,, x2 | =E,, x2 | x3 | ^F,, x2 | x3 | x3 | x2 ^C | C,,3 |][K:Eb][M:4/4] x | %224
 C,,2 x4 =B,,2 | E,2 x6 | E,, x7 | x8 | C,,3/2 x13/2 | G,,2 x6 | A,,2 x6 | =E,,2 x6 | F,,2 x6 | %233
 x8 | D,,2 x6 | _A,2 x6 | E,2 x2 =B,,2 x2 | C,2 x6 | C,,2 x6 | x8 | B,,2 x2 D,4 | x7 :: x | %243
 G,,2 x6 | x8 | x8 | E,2 x6 | D,2 x6 | E,2 x6 | B,,2 x2 E, x3 | x8 | C,,2 x6 | x4 C,3 x | %253
 =A,,2 x6 | D,2 x6 | x8 | x8 | G,,3/2 x13/2 | x7 =A,, | G,,3/2 x5/2 D,4 | x4 C,,3 :| %261
[K:Eb][M:3/2] x | C,,3 x9 | D,,3 x9 | E,,3 x9 | F,,3 x z2 E,2 G,,4 | C,,4 x8 | G,,3 x9 | x12 | %269
 E,3 x9 | D, x3 z2 =F,2 _E,2 D,2 | C,3 x9 | x4 G,,2 x2 D,4 | =A,2 x4 G,,4 x :: x | G,,3 x9 | %276
 =A,,3 x5 =B,,2 G,,2 | C, x3 z2 _B,,2 A,,3 x | G,,3 x7 =E,2 | F, x11 | x4 C,3 x E,3 x | x12 | %282
 G,3 x3 E,2 F,2 x2 | E, x11 | D,3 x3 E,2 F, x D, x | =B,,2 G,,2 C,2 x2 G,,3 x | x6 C,,4 x :| %287
[K:Eb][M:3/4] x6 | x6 | x6 | x6 | x6 | x6 | x6 | x6 :: x6 | x6 | x6 | x6 | x6 | x6 | x6 | x6 | x6 | %304
 x6 | x6 | x6 :|[K:Eb][M:2/2] C,2 x2 | F,2 x2 D,2 x2 | x8 | x8 | C,,2 x6 | x8 | x8 | x8 | x8 | %316
 C,2 x2 E,2 x2 | D,2 x2 C,2 x2 | z2 B,,2 C,2 D, x | G,,4 :: G,,2 x2 | C,,2 x2 B,,2 x2 | A,,2 x6 | %323
 =E,2 x2 C,2 x2 | F,2 x6 | x8 | x8 | x8 | x4 C,2 B,,2 | A,,2 x2 A,,2 G,,2 | F,,2 x2 F,,2 D,2 | %331
 E, x3 B,, x3 | E,,4 E,,2 x2 | D,2 x2 z2 =E,2 | F,2 x2 F,2 x2 | ^F,2 x6 | x8 | x8 | G,,4 x4 | x8 | %340
 F,, x3 E,,2 x2 | F,,2 x2 _A,,2 x2 | G,,2 x2 F,,2 x2 | z2 E,,2 F,, x3 | C,,4 ::[K:Eb][M:2/2] x4 | %346
 x8 | x8 | x8 | x4 :: x4 | x8 | x8 | x8 | =A,2 x6 | x8 | x8 | x8 | x8 | x8 | x8 | x8 | x8 | x8 | %364
 x8 | x8 | x8 | x8 | x4 :|[K:Eb][M:3/8] x | x3 | x3 | x3 | x3 | x3 | x3 | x3 | x3 | x3 | x3 | x3 | %381
 x3 | x3 | x3 | x3 | x3 | x3 | x3 | x3 | x3 | x3 | x3 | x3 | x2 :: x | x3 | x3 | x3 | x3 | x3 | %400
 x3 | x3 | x3 | x3 | x3 | x3 | x3 | x3 | x3 | x3 | x3 | x3 | x3 | x3 | x3 | x3 | x3 | x3 | x3 | %419
 x3 | x3 | x3 | x3 | x3 | x3 | x3 | x3 | x3 | x3 | x3 | x3 | x3 | x3 | x3 | x3 | x3 | x3 | x3 | %438
 x3 | x3 | x3 | x3 | x2 :| %443
V:3
 x8 | F,3 x5 | x8 | x8 | x4 F,3 x | F,2 x6 | x8 | x8 | G,,2 x6 | x8 | ^F,3 x5 | =F,3 x5 | D,2 x6 | %13
 =E,2 x6 | x8 | F,2 x6 | E,2 x6 | x8 | x8 | x8 | D,2 x6 | E,2- E,/D,/C,/B,,/ x4 | x8 | x8 | x8 | %25
 x8 ||[M:3/8] D,2 x | x3 | x3 | x3 | x3 | x3 | x3 | x3 | x3 | x3 | x3 | x3 | x3 | x3 | x3 | x3 | %42
 x3 | x3 | x3 | x3 | x3 | x3 | x3 | x3 | x3 | x3 | x3 | x3 | x3 | x3 | x3 | x3 | x3 | x3 | x3 | %61
 x3 | D,/ x5/2 | x3 | x3 | x3 | x3 | x3 | x3 | x3 | x3 | x3 | x3 | x3 | x3 | x3 | x3 | x3 | %78
 B,, x2 | x3 | x3 | x3 | x3 | x3 | x3 | x3 | x3 | x3 | x3 | x3 | x3 | x3 | x3 | x3 | x3 | x3 | x3 | %97
 x3 | x3 | x3 | x3 | x3 | x3 | x3 | x3 | x3 | x3 | x3 | x3 | x3 | x3 | x3 | x3 | x3 | x3 | x3 | %116
 x3 | x3 | x3 | x3 | x3 | x3 | x3 | x3 | x3 | x3 | x3 | x3 | x3 | x3 | x3 | x3 | x3 | x3 | x3 | %135
 x3 | x3 | x3 | x3 | x3 | x3 | x3 | x3 | x3 | x3 | x3 | x3 | x3 | x3 | x3 | x3 | x3 | x3 | x3 | %154
 x3 | x3 | x3 | x3 | x3 | x3 | x3 | x3 | x3 | x3 | x3 | x3 | x3 | x3 | x3 | x3 | x3 | x3 | x3 | %173
 x3 | x3 | x3 | x3 | x3 | x3 | x3 | x3 | x3 | x3 | x3 | x3 | x3 | x3 | x3 | x3 | x3 | x3 | x3 | %192
 x3 | x3 | x3 | x3 | x3 | x3 | x3 | x3 | x3 | x3 | x3 | x3 | x3 | x3 | x3 | x3 | x3 | x3 | x3 | %211
 x3 | x3 | x3 | x3 | x3 | G, x2 | x3 | C, x2 | x3 | x3 | x2 =F, | =E,3 |][K:Eb][M:4/4] x | E,2 x6 | %225
 x8 | G,, x7 | x8 | G,,3/2 x13/2 | E,2 x6 | E,2 x6 | C,2 x6 | F,2 x6 | x8 | F,2 x6 | x8 | x8 | x8 | %238
 ^F,2 x6 | x8 | D,2 x6 | x7 :: x | =B,2 x6 | x8 | x8 | x8 | x8 | B,2 x2 B,2 x2 | B,2 x6 | x8 | %251
 =E,2 x6 | x8 | x8 | x8 | x8 | x8 | ^C3/2 x13/2 | x8 | x8 | x4 E,3 :|[K:Eb][M:3/2] x | x12 | %263
 =B,,3 x9 | x12 | F,3 x9 | G,,4 x8 | E,3 x9 | x12 | x12 | x12 | G,3 x9 | x4 D,2 x6 | x11 :: x | %275
 =B,3 x9 | x12 | x6 D,2 E,3 x | x12 | x12 | x4 _A,3 x5 | x12 | x12 | x12 | x12 | x12 | x6 E,4 x :| %287
[K:Eb][M:3/4] x6 | x6 | x6 | x6 | x6 | x6 | x6 | x6 :: x6 | x6 | x6 | x6 | x6 | x6 | x6 | x6 | x6 | %304
 x6 | x6 | x6 :|[K:Eb][M:2/2] E,2 x2 | x8 | x8 | x8 | G,,2 x6 | x8 | x8 | x8 | x8 | G,2 x6 | %317
 x4 G,2 x2 | x2 D,2 G,2 x2 | D,4 :: D,2 x2 | G,,2 x6 | x8 | x4 =E,2 x2 | x8 | x8 | x8 | x8 | %328
 x4 E,2 E,2 | x4 E,2 E,2 | A,,2 x2 A,,2 x2 | x8 | B,,4 B,,2 x2 | x8 | x8 | x8 | x8 | x8 | D,4 x4 | %339
 x8 | D, x7 | C,2 x6 | x4 C,2 x2 | x4 C, x3 | x4 ::[K:Eb][M:2/2] x4 | x8 | x8 | x8 | x4 :: x4 | %351
 x8 | x8 | x8 | x8 | x8 | x8 | x8 | x8 | x8 | x8 | x8 | x8 | x8 | x8 | x8 | x8 | x8 | x4 :| %369
[K:Eb][M:3/8] x | x3 | x3 | x3 | x3 | x3 | x3 | x3 | x3 | x3 | x3 | x3 | x3 | x3 | x3 | x3 | x3 | %386
 x3 | x3 | x3 | x3 | x3 | x3 | x3 | x2 :: x | x3 | x3 | x3 | x3 | x3 | x3 | x3 | x3 | x3 | x3 | %405
 x3 | x3 | x3 | x3 | x3 | x3 | x3 | x3 | x3 | x3 | x3 | x3 | x3 | x3 | x3 | x3 | x3 | x3 | x3 | %424
 x3 | x3 | x3 | x3 | x3 | x3 | x3 | x3 | x3 | x3 | x3 | x3 | x3 | x3 | x3 | x3 | x3 | x3 | x2 :| %443
V:4
 x8 | =B,,3 x5 | x8 | x8 | x8 | G,,2 x6 | x8 | x8 | x8 | x8 | x8 | x8 | x8 | x8 | x8 | B,,2 x6 | %16
 B,,2 x6 | x8 | x8 | x8 | x8 | G,,2 x6 | x8 | x8 | x8 | x8 ||[M:3/8] x3 | x3 | x3 | x3 | x3 | x3 | %32
 x3 | x3 | x3 | x3 | x3 | x3 | x3 | x3 | x3 | x3 | x3 | x3 | x3 | x3 | x3 | x3 | x3 | x3 | x3 | %51
 x3 | x3 | x3 | x3 | x3 | x3 | x3 | x3 | x3 | x3 | x3 | x3 | x3 | x3 | x3 | x3 | x3 | x3 | x3 | %70
 x3 | x3 | x3 | x3 | x3 | x3 | x3 | x3 | x3 | x3 | x3 | x3 | x3 | x3 | x3 | x3 | x3 | x3 | x3 | %89
 x3 | x3 | x3 | x3 | x3 | x3 | x3 | x3 | x3 | x3 | x3 | x3 | x3 | x3 | x3 | x3 | x3 | x3 | x3 | %108
 x3 | x3 | x3 | x3 | x3 | x3 | x3 | x3 | x3 | x3 | x3 | x3 | x3 | x3 | x3 | x3 | x3 | x3 | x3 | %127
 x3 | x3 | x3 | x3 | x3 | x3 | x3 | x3 | x3 | x3 | x3 | x3 | x3 | x3 | x3 | x3 | x3 | x3 | x3 | %146
 x3 | x3 | x3 | x3 | x3 | x3 | x3 | x3 | x3 | x3 | x3 | x3 | x3 | x3 | x3 | x3 | x3 | x3 | x3 | %165
 x3 | x3 | x3 | x3 | x3 | x3 | x3 | x3 | x3 | x3 | x3 | x3 | x3 | x3 | x3 | x3 | x3 | x3 | x3 | %184
 x3 | x3 | x3 | x3 | x3 | x3 | x3 | x3 | x3 | x3 | x3 | x3 | x3 | x3 | x3 | x3 | x3 | x3 | x3 | %203
 x3 | x3 | x3 | x3 | x3 | x3 | x3 | x3 | x3 | x3 | x3 | x3 | x3 | C, x2 | x3 | x3 | x3 | x3 | x3 | %222
 G,,3 |][K:Eb][M:4/4] x | G,,2 x6 | x8 | x8 | x8 | x8 | x8 | x8 | x8 | C,2 x6 | x8 | B,,2 x6 | x8 | %236
 x8 | x8 | =A,,2 x6 | x8 | x8 | x7 :: x | x8 | x8 | x8 | x8 | x8 | x8 | x8 | x8 | x8 | x8 | x8 | %254
 x8 | x8 | x8 | x8 | x8 | x8 | x4 G,,3 :|[K:Eb][M:3/2] x | x12 | x12 | x12 | C,3 x9 | x12 | x12 | %268
 x12 | x12 | x12 | x12 | x12 | x11 :: x | x12 | x12 | x12 | x12 | x12 | x12 | x12 | x12 | x12 | %284
 x12 | x12 | x6 G,,4 x :|[K:Eb][M:3/4] x6 | x6 | x6 | x6 | x6 | x6 | x6 | x6 :: x6 | x6 | x6 | x6 | %299
 x6 | x6 | x6 | x6 | x6 | x6 | x6 | x6 :|[K:Eb][M:2/2] x4 | x8 | x8 | x8 | x8 | x8 | x8 | x8 | x8 | %316
 x8 | x8 | x8 | x4 :: x4 | x8 | x8 | x8 | x8 | x8 | x8 | x8 | x8 | x8 | x8 | x8 | x8 | x8 | x8 | %335
 x8 | x8 | x8 | x8 | x8 | =B,, x7 | x8 | x8 | x8 | x4 ::[K:Eb][M:2/2] x4 | x8 | x8 | x8 | x4 :: %350
 x4 | x8 | x8 | x8 | x8 | x8 | x8 | x8 | x8 | x8 | x8 | x8 | x8 | x8 | x8 | x8 | x8 | x8 | x4 :| %369
[K:Eb][M:3/8] x | x3 | x3 | x3 | x3 | x3 | x3 | x3 | x3 | x3 | x3 | x3 | x3 | x3 | x3 | x3 | x3 | %386
 x3 | x3 | x3 | x3 | x3 | x3 | x3 | x2 :: x | x3 | x3 | x3 | x3 | x3 | x3 | x3 | x3 | x3 | x3 | %405
 x3 | x3 | x3 | x3 | x3 | x3 | x3 | x3 | x3 | x3 | x3 | x3 | x3 | x3 | x3 | x3 | x3 | x3 | x3 | %424
 x3 | x3 | x3 | x3 | x3 | x3 | x3 | x3 | x3 | x3 | x3 | x3 | x3 | x3 | x3 | x3 | x3 | x3 | x2 :| %443

